X: 2255
T: COME LET'S A' TO THE BRIDAL
Q: "Jig."
R: Jig.
%R: slip-jig
B: James Kerr "Merry Melodies" v.2 p.28 #255
Z: 2016 John Chambers <jc:trillian.mit.edu>
M: 9/8
L: 1/8
K: G
|:\
vG2vG uG2ue dBG | uA2uA ABd (e2g) |\
vGAG Gge dBG | uABc BAB E3 ::\
vg2vg gag fed | uB2ud deB def |\
vgag gag fed | uBee ef^d | e3 :|
